X: 1606
T: Anna Thug Mi Gradh Dhuit
R: reel
M: 4/4
K: Amajor
|:B2|A2ED CEAB|cdBc AFF/F/F/G|A2ED CEAB|cAec A:|
d|cee/e/e/ cff/f/f/|eccB AFFA|cee/e/e/ defg|agfef3 g|
agfe fgaf|ecBc AFEA|GAEA CEA,d|cAec B2A||

